X:1
T: The Mills are Grinding
P:Roche version
R:Reel
Q: 232
K:Gm
M:4/4
L:1/8
|:G^F|DG G^F G2 GA|=BG dG =eG dG|DF F=E F2 FG|AF cF dF cF|
DG G^F G2 GA|BA GA Bc d=e|f=e fd cB Ac|BA BA G2:|
|:d2|dg ^fa g2 ga|=bg ag bg ag|d^c d=e fe fg|ag ^fg ag fg|
dg ^fa g2 ga|=ba g^f gd d=e|fe fd cB Ac|BA BA G2:|
